X:265
T:New Ships A Sailing
Z: id:dc-reel-245
M:C
L:1/8
K:G Major
D|G2FG AGED|G2Bd edef|gdBG AGED|AGFE DcBA|!
G2FG AGED|G2Bd edef|gdBG AGED|GBAF G3:|!
D|G2Bd edBd|g2fg edBd|cBAc BAGB|AGFE DcBA|!
G2FG AGED|G2Bd edef|gdBG AGED|GBAF G3:|!

